src/lib/packages/icons/src/assets/line/activity-square.svg

<svg xmlns="http://www.w3.org/2000/svg" width="24" height="24" fill="none"><path fill="currentColor" d="M17.625 21.75H6.375c-2.66 0-4.125-1.465-4.125-4.125V6.375c0-2.66 1.465-4.125 4.125-4.125h11.25c2.66 0 4.125 1.465 4.125 4.125v11.25c0 2.66-1.465 4.125-4.125 4.125Zm-11.25-18c-1.84 0-2.625.785-2.625 2.625v11.25c0 1.84.785 2.625 2.625 2.625h11.25c1.84 0 2.625-.785 2.625-2.625V6.375c0-1.84-.785-2.625-2.625-2.625H6.375ZM7.53 14.53l2.791-2.791a.25.25 0 0 1 .354 0l1.589 1.585a1.752 1.752 0 0 0 2.474-.001l2.793-2.793a.75.75 0 1 0-1.061-1.061l-2.793 2.793a.25.25 0 0 1-.354 0l-1.589-1.585a1.752 1.752 0 0 0-2.474.001l-2.791 2.791A.75.75 0 1 0 7.53 14.53Z"/></svg>

<svg width="24" height="24" viewBox="0 0 24 24" fill="none" xmlns="http://www.w3.org/2000/svg">
<path d="M17.625 21.75H6.375C3.715 21.75 2.25 20.285 2.25 17.625V6.375C2.25 3.715 3.715 2.25 6.375 2.25H17.625C20.285 2.25 21.75 3.715 21.75 6.375V17.625C21.75 20.285 20.285 21.75 17.625 21.75ZM6.375 3.75C4.535 3.75 3.75 4.535 3.75 6.375V17.625C3.75 19.465 4.535 20.25 6.375 20.25H17.625C19.465 20.25 20.25 19.465 20.25 17.625V6.375C20.25 4.535 19.465 3.75 17.625 3.75H6.375ZM7.53 14.53L10.321 11.739C10.419 11.641 10.577 11.641 10.675 11.739L12.264 13.324C12.946 14.005 14.056 14.005 14.738 13.323L17.531 10.53C17.824 10.237 17.824 9.76199 17.531 9.46899C17.238 9.17599 16.763 9.17599 16.47 9.46899L13.677 12.262C13.579 12.359 13.421 12.36 13.323 12.262L11.734 10.677C11.052 9.996 9.94199 9.99598 9.25999 10.678L6.469 13.469C6.176 13.762 6.176 14.237 6.469 14.53C6.615 14.676 6.807 14.75 6.999 14.75C7.191 14.75 7.384 14.677 7.53 14.53Z" fill="currentColor"/>
</svg>
